!!!OTL: Kerenstein Ich bin durch frawen willen
!!!ARE: Europa, Mitteleuropa, Deutschland
!!!YOR: 1, S. 174
!!    1549 gedruckt in Nuernberg
!!!SCT: Q0018A
!!!YEM: Copyright 1995, estate of Helmut Schaffrath.
**kern
*ICvox
*Ivox
!! Irregular meter.
*MX
*k[f#]
*G:
{4g
=1
4g
4g
4g
4g
=2
2cc
2cc
4r}
{4cc
=3
2dd
4dd
2dd
4dd
=4
4.cc
8dd
4ee
8dd
8cc
=5
2dd
4r}
{4dd
=6
4dd
4dd
4cc
4dd
=7
2b
2g}
{2dd
=8
4cc
4b
2a
4b
=9
2cc
4b
2a
4r}
{4b
=10
4.g
8a
4b
2cc
4b
=11
2a
2g
4r}
{4b
=12
2a
4g
2fn
4g
=13
2a
4r}
{4b
=14
4.g
8a
4b
2cc
4b
=15
2a
2g
4r}
{4dd
=16
4dd
4b
4a
2dd
[4cc
=17
8cc]
8b
8a
8g
2a
=18
1g}
==
!!!AGN: Ballade, Liebe
!! Kleinere Melodievarianten aus anderen Quellen abgedruckt.
!!    Eingeklammerte Pausen mitgespielt.
!!!ONB: ESAC (Essen Associative Code) Database: BALLADE
!!!AMT: irregular
!!!AIN: vox
!!!EED: Helmut Schaffrath
!!!EEV: 1.0
*-
